packages/kaspersky-hexa-ui-icons/src/iconsSVGs/28x20/FlagLb.svg

<svg width="28" height="20" viewBox="0 0 28 20" fill="none" xmlns="http://www.w3.org/2000/svg">
<g clip-path="url(#clip0_5138_1297)">
<path d="M0 2C0 0.895431 0.895431 0 2 0H26C27.1046 0 28 0.895431 28 2V18C28 19.1046 27.1046 20 26 20H2C0.895431 20 0 19.1046 0 18V2Z" fill="white"/>
<mask id="mask0_5138_1297" style="mask-type:luminance" maskUnits="userSpaceOnUse" x="0" y="0" width="28" height="20">
<rect width="28" height="20" rx="2" fill="white"/>
</mask>
<g mask="url(#mask0_5138_1297)">
<path d="M26 19.5V20H2V19.5H26ZM27.5 18V2C27.5 1.17157 26.8284 0.5 26 0.5H2C1.17157 0.5 0.5 1.17157 0.5 2V18C0.5 18.8284 1.17157 19.5 2 19.5V20C0.895431 20 0 19.1046 0 18V2C2.57702e-07 0.895431 0.895431 0 2 0H26C27.1046 0 28 0.895431 28 2V18C28 19.1046 27.1046 20 26 20V19.5C26.8284 19.5 27.5 18.8284 27.5 18Z" fill="#F5F5F5"/>
<path fill-rule="evenodd" clip-rule="evenodd" d="M0 5.33333H28V0H0V5.33333Z" fill="#F03340"/>
<path fill-rule="evenodd" clip-rule="evenodd" d="M0 20H28V14.6667H0V20Z" fill="#F03340"/>
<path fill-rule="evenodd" clip-rule="evenodd" d="M12.9428 12.3905C13.1585 12.1748 13.1585 11.8252 12.9428 11.6095L12.8661 11.5328C12.7424 11.409 12.5628 11.3593 12.3931 11.4017L12.0138 11.4966C11.5701 11.6075 11.2948 11.0289 11.6606 10.7545L12.0033 10.4975C12.2158 10.3381 12.1031 10 11.8375 10C11.5458 10 11.453 9.60683 11.7139 9.47639L12.2861 9.19027C12.547 9.05984 12.4542 8.66667 12.1625 8.66667C11.8969 8.66667 11.7842 8.32853 11.9967 8.16916L13.6 6.96667C13.837 6.78889 14.163 6.78889 14.4 6.96667L16.0033 8.16916C16.2158 8.32853 16.1031 8.66667 15.8375 8.66667C15.5458 8.66667 15.453 9.05984 15.7139 9.19027L16.2861 9.47639C16.547 9.60683 16.4542 10 16.1625 10C15.8969 10 15.7842 10.3381 15.9967 10.4975L16.3394 10.7545C16.7052 11.0289 16.4299 11.6075 15.9862 11.4966L15.6069 11.4017C15.4372 11.3593 15.2576 11.409 15.1339 11.5328L15.0572 11.6095C14.8415 11.8252 14.8415 12.1748 15.0572 12.3905C15.4051 12.7384 15.1587 13.3333 14.6667 13.3333H13.3333C12.8413 13.3333 12.5949 12.7384 12.9428 12.3905Z" fill="#1FC065"/>
</g>
</g>
<defs>
<clipPath id="clip0_5138_1297">
<rect width="28" height="20" fill="white"/>
</clipPath>
</defs>
</svg>

<svg xmlns="http://www.w3.org/2000/svg" width="28" height="20" fill="none" viewBox="0 0 28 20"><g clip-path="url(#a)"><path fill="#fff" d="M0 2C0 .8954.8954 0 2 0h24c1.1046 0 2 .8954 2 2v16c0 1.1046-.8954 2-2 2H2c-1.1046 0-2-.8954-2-2z"/><mask id="b" width="28" height="20" x="0" y="0" maskUnits="userSpaceOnUse" style="mask-type:luminance"><rect width="28" height="20" fill="#fff" rx="2"/></mask><g mask="url(#b)"><path fill="#f5f5f5" d="M26 19.5v.5H2v-.5zm1.5-1.5V2c0-.8284-.6716-1.5-1.5-1.5H2C1.1716.5.5 1.1716.5 2v16c0 .8284.6716 1.5 1.5 1.5v.5c-1.1046 0-2-.8954-2-2V2C0 .8954.8954 0 2 0h24c1.1046 0 2 .8954 2 2v16c0 1.1046-.8954 2-2 2v-.5c.8284 0 1.5-.6716 1.5-1.5"/><path fill="#f03340" fill-rule="evenodd" d="M0 5.333h28V0H0zM0 20h28v-5.333H0z" clip-rule="evenodd"/><path fill="#1fc065" fill-rule="evenodd" d="M12.9428 12.3905a.552.552 0 0 0 0-.781l-.0767-.0767a.498.498 0 0 0-.473-.1311l-.3793.0949c-.4437.1109-.719-.4677-.3532-.7421l.3427-.257c.2125-.1594.0998-.4975-.1658-.4975-.2917 0-.3845-.3932-.1236-.5236l.5722-.2861c.2609-.1305.1681-.5236-.1236-.5236-.2656 0-.3783-.3382-.1658-.4975L13.6 6.9667a.667.667 0 0 1 .8 0l1.6033 1.2025c.2125.1593.0998.4975-.1658.4975-.2917 0-.3845.3931-.1236.5236l.5722.286c.2609.1305.1681.5237-.1236.5237-.2656 0-.3783.3381-.1658.4975l.3427.257c.3658.2744.0905.853-.3532.7421l-.3793-.0949a.498.498 0 0 0-.473.1311l-.0767.0767a.552.552 0 0 0 0 .781c.3479.3479.1015.9428-.3905.9428h-1.3334c-.492 0-.7384-.5949-.3905-.9428" clip-rule="evenodd"/></g></g><defs><clipPath id="a"><path fill="#fff" d="M0 0h28v20H0z"/></clipPath></defs></svg>
